X: 7337
T: Cliffs Of Glencolumbkille, The
R: reel
M: 4/4
K: Dmajor
|:ADFD FAAB|ADFA BG(3Bcd|ADFD FAAB|1 (3ddd fd efdB:|2 (3ddd fd edBA||
df~f2 dfaf|df~f2 edBA|df~f2 dfaf|gbfg edBA|
df~f2 dfaf|defd e2fg|a^gab a=gfe|defd efdB|

